images/icon-skype.svg

<?xml version="1.0" encoding="UTF-8" standalone="no"?>
<svg width="50px" height="50px" viewBox="0 0 50 50" version="1.1" xmlns="http://www.w3.org/2000/svg" xmlns:xlink="http://www.w3.org/1999/xlink" xmlns:sketch="http://www.bohemiancoding.com/sketch/ns">
    <title>Skype</title>
    <description>Created with Sketch (http://www.bohemiancoding.com/sketch)</description>
    <defs></defs>
    <g id="Page-1" stroke="none" stroke-width="1" fill="none" fill-rule="evenodd" sketch:type="MSPage">
        <g id="Skype" sketch:type="MSArtboardGroup" fill="#000000">
            <path d="M50,25 C50,11.1928806 38.8071194,0 25,0 C11.1928806,0 0,11.1928806 0,25 C0,38.8071194 11.1928806,50 25,50 C38.8071194,50 50,38.8071194 50,25 Z M47,25 C47,12.8497349 37.1502651,3 25,3 C12.8497349,3 3,12.8497349 3,25 C3,37.1502651 12.8497349,47 25,47 C37.1502651,47 47,37.1502651 47,25 Z M25.4397706,13.975276 C24.8096937,13.975276 24.1919703,14.0277875 23.5908485,14.1278564 C22.5130674,13.4152862 21.2304038,13 19.8499866,13 C16.0647401,13 13,16.1114511 13,19.9506313 C13,21.3475345 13.4052238,22.6452605 14.1030252,23.7348727 C14.0090312,24.330184 13.9609845,24.939812 13.9609845,25.5608835 C13.9609845,31.9601448 19.0985232,37.1471351 25.4397218,37.1471351 C26.1553942,37.1471351 26.8521702,37.0764923 27.5293662,36.9523474 C28.5816102,37.6146354 29.8210609,38 31.1497692,38 C34.9340392,38 38,34.8877563 38,31.0489724 C37.9998535,29.5978238 37.5625009,28.2486268 36.8112328,27.1332542 C36.879885,26.6180477 36.9193869,26.0942709 36.9193869,25.5610817 C36.9193869,19.1628112 31.7792114,13.975276 25.4397706,13.975276 Z M19.9677886,28.6935701 C21.3911596,28.5966276 22.2458078,30.338952 23.0054897,30.8236149 C23.7642429,31.3064835 26.6513076,32.4065946 28.1762921,30.6288326 C29.836859,28.6935701 27.0719846,27.6921461 25.0453354,27.3890074 C22.1517212,26.9520931 18.4983763,25.3558056 18.7825911,22.210082 C19.0669036,19.066352 21.4014725,17.454464 23.8583783,17.2270851 C26.9902148,16.9371546 29.0290341,17.7109007 30.6416535,19.1141006 C32.5063271,20.7354087 31.497377,22.5479106 30.3093446,22.693748 C29.1260044,22.8387382 27.7969155,20.0270054 25.187565,19.9847394 C22.4980576,19.941676 20.6803539,22.8387382 24.000559,23.6622764 C27.3224748,24.4849175 30.8798758,24.8228956 32.1609683,27.9196246 C33.4429406,31.0166527 30.1690701,34.305622 26.5147477,34.4997563 C22.8634067,34.6936913 21.1547457,33.8699039 19.5894873,32.3719545 C17.8414321,30.6988605 18.5436356,28.7905625 19.9677886,28.6935701 Z M19.9677886,28.6935701" id="Oval-1" sketch:type="MSShapeGroup"></path>
        </g>
    </g>
</svg>

<svg width="50" height="50" xmlns="http://www.w3.org/2000/svg" xmlns:sketch="http://www.bohemiancoding.com/sketch/ns"><title>Skype</title><path d="M50 25c0-13.807-11.193-25-25-25s-25 11.193-25 25 11.193 25 25 25 25-11.193 25-25zm-3 0c0-12.15-9.85-22-22-22s-22 9.85-22 22 9.85 22 22 22 22-9.85 22-22zm-21.56-11.025c-.63 0-1.248.053-1.849.153-1.078-.713-2.36-1.128-3.741-1.128-3.785 0-6.85 3.111-6.85 6.951 0 1.397.405 2.695 1.103 3.784-.094.595-.142 1.205-.142 1.826 0 6.399 5.138 11.586 11.479 11.586.716 0 1.412-.071 2.09-.195 1.052.662 2.292 1.048 3.62 1.048 3.784 0 6.85-3.112 6.85-6.951 0-1.451-.437-2.8-1.189-3.916.069-.515.108-1.039.108-1.572 0-6.398-5.14-11.586-11.48-11.586zm-5.472 14.718c1.423-.097 2.278 1.645 3.038 2.13.759.483 3.646 1.583 5.171-.195 1.661-1.935-1.104-2.937-3.131-3.24-2.894-.437-6.547-2.033-6.263-5.179.284-3.144 2.619-4.756 5.076-4.983 3.132-.29 5.171.484 6.783 1.887 1.865 1.621.856 3.434-.332 3.58-1.183.145-2.512-2.667-5.122-2.709-2.69-.043-4.507 2.854-1.187 3.678 3.322.823 6.879 1.161 8.16 4.257 1.282 3.097-1.992 6.386-5.646 6.58-3.651.194-5.36-.63-6.925-2.128-1.748-1.673-1.046-3.581.378-3.678zm0 0" sketch:type="MSShapeGroup" fill="none"/></svg>
